images/linkedin-teal.svg

<svg xmlns="http://www.w3.org/2000/svg" viewBox="0 0 68.8 68.6" enable-background="new 0 0 68.8 68.6"><g fill="#13CFB0"><path d="M1.1 22.8h14.3v45.8h-14.3v-45.8zm7.2-22.8c4.6 0 8.3 3.7 8.3 8.3 0 4.6-3.7 8.3-8.3 8.3-4.6-.1-8.3-3.8-8.3-8.3 0-4.6 3.7-8.3 8.3-8.3"/><path d="M24.3 22.8h13.7v6.2h.2c1.9-3.6 6.6-7.4 13.5-7.4 14.4 0 17.1 9.5 17.1 21.8v25.1h-14.3v-22.2c0-5.3-.1-12.2-7.4-12.2-7.4 0-8.5 5.8-8.5 11.8v22.7h-14.3v-45.8z"/></g></svg>

<?xml version="1.0" encoding="utf-8"?>
<!-- Generator: Adobe Illustrator 21.1.0, SVG Export Plug-In . SVG Version: 6.00 Build 0)  -->
<svg version="1.1" id="Layer_1" xmlns="http://www.w3.org/2000/svg" xmlns:xlink="http://www.w3.org/1999/xlink" x="0px" y="0px"
	 viewBox="0 0 68.8 68.6" style="enable-background:new 0 0 68.8 68.6;" xml:space="preserve">
<style type="text/css">
	.st0{fill:#F44A52;}
</style>
<g>
	<path class="st0" d="M1.1,22.8h14.3v45.8H1.1C1.1,68.6,1.1,22.8,1.1,22.8z M8.3,0c4.6,0,8.3,3.7,8.3,8.3s-3.7,8.3-8.3,8.3
		C3.7,16.5,0,12.8,0,8.3C0,3.7,3.7,0,8.3,0"/>
	<path class="st0" d="M24.3,22.8H38V29h0.2c1.9-3.6,6.6-7.4,13.5-7.4c14.4,0,17.1,9.5,17.1,21.8v25.1H54.5V46.3
		c0-5.3-0.1-12.2-7.4-12.2c-7.4,0-8.5,5.8-8.5,11.8v22.7H24.3C24.3,68.6,24.3,22.8,24.3,22.8z"/>
</g>
</svg>
